X: 24879
T: Magnet, The
R: reel
M: 4/4
K: Amajor
Fc c/c/c BAFE|Fc c/c/c e2 cB|Fc c/c/c BAFE|A/B/c ec B2 BA|Fc c/c/c BAFE|
Fc c/c/c ece=f|fecf ecBA|1 BAFE F3 E:|2 BAFE FAB=c
|:cA A/A/A BAFE|A/B/c ec f3 a|ec c/c/c BAFE|A/B/c ec B3 d|
cA A/A/A BAFE|A/B/c ec f3 (a|a)fea fecA|1 BAFE FAB=c:|2 BAFE F4||

